dist/assets/img/footer-logo-2.svg

<svg width="154" height="49" viewBox="0 0 154 49" fill="none" xmlns="http://www.w3.org/2000/svg">
<path d="M82.9242 21.0912L79.1017 10.6074L75.2294 21.0912H82.9242ZM83.0113 3.73438L94.292 31.2637H86.6346L84.8167 26.3704H73.287L71.519 31.2637H64.0234L75.2668 3.73438H83.0113Z" fill="#333A4A"/>
<path d="M108.81 31.7483C99.5094 31.7483 93.8691 26.2823 93.8691 17.4794C93.8691 8.78854 99.7086 3.28516 109.009 3.28516C116.505 3.28516 121.772 7.76755 122.793 14.0304H115.882C115.098 10.2702 112.097 8.63912 108.76 8.63912C104.564 8.63912 101.314 11.864 101.314 17.4794C101.314 23.2941 104.564 26.4068 108.847 26.4068C111.898 26.4068 115.272 25.1866 116.094 21.0155H123.004C121.946 27.3905 116.343 31.7483 108.81 31.7483Z" fill="#333A4A"/>
<path d="M133.588 3.73438V21.5768L146.263 3.73438H153.061V31.2637H146.263V13.4213L133.588 31.2637H126.802V3.73438H133.588Z" fill="#333A4A"/>
<path d="M12.4013 8.67841L0 0V35L12.4013 26.3216V8.67841Z" fill="#333A4A"/>
<path d="M37.5898 8.67841V26.3216L49.9911 35V0L37.5898 8.67841Z" fill="#333A4A"/>
<path d="M68.6523 46.0006H67.1387V40.1217H65.2002V38.8619H70.5908V40.1217H68.6523V46.0006ZM91.561 46.0006V38.8506H96.221V40.1106H93.171V41.7806H95.611V42.9606H93.171V44.7406H96.381V46.0006H91.561ZM116.948 46.0006L119.298 38.8506H121.408L123.728 46.0006H122.038L121.548 44.4106H118.958L118.468 46.0006H116.948ZM120.258 40.1706L119.308 43.2606H121.198L120.258 40.1706ZM144.706 46.0006V38.8506H146.846L148.516 43.3006L150.166 38.8506H152.266V46.0006H150.656V40.9806L148.676 46.0006H148.146L146.156 40.9806V46.0006H144.706Z" fill="#333A4A"/>
</svg>

<svg width="154" height="49" viewBox="0 0 154 49" fill="none" xmlns="http://www.w3.org/2000/svg"><path d="M82.924 21.091l-3.822-10.484-3.873 10.484h7.695zm.087-17.357l11.281 27.53h-7.657l-1.818-4.894h-11.53l-1.768 4.894h-7.496l11.244-27.53h7.744zm25.799 28.014c-9.3 0-14.94-5.466-14.94-14.269 0-8.69 5.839-14.194 15.139-14.194 7.496 0 12.763 4.483 13.784 10.745h-6.911c-.784-3.76-3.785-5.39-7.122-5.39-4.196 0-7.446 3.224-7.446 8.84 0 5.814 3.25 8.927 7.533 8.927 3.051 0 6.425-1.22 7.247-5.392h6.91c-1.058 6.375-6.661 10.733-14.194 10.733zm24.778-28.014v17.843l12.675-17.843h6.798v27.53h-6.798V13.42l-12.675 17.843h-6.786V3.734h6.786zM12.401 8.678L0 0v35l12.401-8.678V8.678zm25.189 0v17.644L49.99 35V0l-12.4 8.678zM68.652 46H67.14v-5.878H65.2v-1.26h5.39v1.26h-1.938V46zm22.909 0v-7.15h4.66v1.26h-3.05v1.67h2.44v1.18h-2.44v1.78h3.21V46h-4.82zm25.387 0l2.35-7.15h2.11l2.32 7.15h-1.69l-.49-1.59h-2.59l-.49 1.59h-1.52zm3.31-5.83l-.95 3.09h1.89l-.94-3.09zM144.706 46v-7.15h2.14l1.67 4.45 1.65-4.45h2.1V46h-1.61v-5.02l-1.98 5.02h-.53l-1.99-5.02V46h-1.45z" fill="#333A4A"/></svg>
